X: 4
T: The Burning Of The Piper's Hut
R: reel
M: 4/4
L: 1/8
K: Emin
|: D |E>FGA B2 B^A | B>^ABd B2 AG | F2 D2 A2 D2 | FGAB AB/A/ GF |
E>FGA B2 B^A | B>^ABd B2 AG | F2 D2 Bc/B/ AG | F2 E^D E3 :|
|: B |EFGA BEE/E/E | dEE/E/E Bc/B/ AG | F2 D2 A2 D2 | FGAB A2 GF |
EFGA BEE/E/E | dEE/E/E B2 AG | F2 D2 B2 AG | FG/F E^D E3 :|


Tune 660	Setting 22845

